dist/images/logo.svg

<svg width="161" height="33" viewBox="0 0 161 33" xmlns="http://www.w3.org/2000/svg" shape-rendering="geometricPrecision"><title>QUENCH</title><defs><filter x="-50%" y="-50%" width="200%" height="200%" filterUnits="objectBoundingBox" id="a"><feOffset dy="-1" in="SourceAlpha" result="shadowOffsetOuter1"/><feGaussianBlur in="shadowOffsetOuter1" result="shadowBlurOuter1"/><feColorMatrix values="0 0 0 0 0 0 0 0 0 0 0 0 0 0 0 0 0 0 0.174623528 0" in="shadowBlurOuter1" result="shadowMatrixOuter1"/><feMerge><feMergeNode in="shadowMatrixOuter1"/><feMergeNode in="SourceGraphic"/></feMerge></filter></defs><path d="M24.344 32.204c-.864.684-1.62.576-2.268-.252l-2.52-3.24a14.31 14.31 0 0 1-5.112.936c-3.888 0-7.344-1.584-9.9-4.104A13.784 13.784 0 0 1 .44 15.68c0-3.888 1.548-7.344 4.104-9.9s6.012-4.104 9.9-4.104a13.93 13.93 0 0 1 9.9 4.104c2.556 2.556 4.104 6.012 4.104 9.9 0 3.456-1.224 6.624-3.348 9.072l2.34 2.988c.648.864.54 1.62-.288 2.304l-2.808 2.16zm-10.908-11.34c-.684-.9-.576-1.656.252-2.304l2.808-2.196c.9-.612 1.656-.54 2.304.288l1.908 2.484c.612-1.044.9-2.196.9-3.456 0-1.98-.792-3.78-2.088-5.076a7.186 7.186 0 0 0-5.076-2.124c-1.98 0-3.78.828-5.076 2.124a7.186 7.186 0 0 0-2.124 5.076c0 1.98.828 3.78 2.124 5.076a7.155 7.155 0 0 0 5.076 2.088c.216 0 .396 0 .504-.036l-1.512-1.944zm43.212-4.356c-.036 3.312-1.26 6.624-3.384 9.072-2.16 2.448-5.22 4.068-8.964 4.068-3.6 0-6.66-1.476-8.82-3.888s-3.42-5.688-3.528-9.252V3.98c0-1.08.54-1.62 1.62-1.62h3.564c1.08 0 1.62.54 1.62 1.62v12.528c0 1.872.612 3.492 1.62 4.644 1.008 1.188 2.376 1.872 3.924 1.872 1.476 0 2.88-.684 3.888-1.872 1.008-1.152 1.62-2.772 1.62-4.644V3.98c0-1.08.54-1.62 1.62-1.62h3.6c1.08 0 1.62.54 1.62 1.62v12.528zM80.312 27.38c0 1.08-.54 1.62-1.62 1.62H63.248c-1.08 0-1.62-.54-1.62-1.62V3.98c0-1.08.54-1.62 1.62-1.62h15.444c1.08 0 1.62.54 1.62 1.62v3.564c0 1.08-.54 1.62-1.62 1.62h-10.26v3.348h7.56c1.08 0 1.62.54 1.62 1.62v3.06c0 1.08-.54 1.62-1.62 1.62h-7.56v3.384h10.26c1.08 0 1.62.54 1.62 1.62v3.564zM86.876 29c-1.08 0-1.62-.54-1.62-1.62V3.98c0-1.08.54-1.62 1.62-1.62h3.096c.828 0 1.512.36 1.98 1.044l8.316 12.06V3.98c0-1.08.54-1.62 1.62-1.62h3.564c1.08 0 1.62.54 1.62 1.62v23.4c0 1.08-.54 1.62-1.62 1.62h-3.096c-.828 0-1.512-.36-1.98-1.044L92.06 15.788V27.38c0 1.08-.54 1.62-1.62 1.62h-3.564zm37.992.684a13.93 13.93 0 0 1-9.9-4.104 13.93 13.93 0 0 1-4.104-9.9c0-3.888 1.548-7.344 4.104-9.9a13.93 13.93 0 0 1 9.9-4.104c3.744 0 7.236 1.44 9.864 4.032.756.756.648 1.584-.216 2.268l-2.844 2.232c-.828.684-1.44.576-2.268-.108-1.296-1.08-2.808-1.62-4.536-1.62-1.98 0-3.78.828-5.076 2.124a7.186 7.186 0 0 0-2.124 5.076c0 1.98.828 3.78 2.124 5.076a7.155 7.155 0 0 0 5.076 2.088c1.656 0 3.132-.504 4.392-1.512.828-.612 1.476-.756 2.304-.072l2.772 2.34c.828.684.936 1.548.108 2.304-2.592 2.448-5.976 3.78-9.576 3.78zm35.868-2.304c0 1.08-.54 1.62-1.62 1.62h-3.564c-1.08 0-1.62-.54-1.62-1.62V19.1h-7.38v8.28c0 1.08-.54 1.62-1.62 1.62h-3.564c-1.08 0-1.62-.54-1.62-1.62V3.98c0-1.08.54-1.62 1.62-1.62h3.564c1.08 0 1.62.54 1.62 1.62v8.28h7.38V3.98c0-1.08.54-1.62 1.62-1.62h3.564c1.08 0 1.62.54 1.62 1.62v23.4z" fill="#FFF" filter="url(#a)" fill-rule="evenodd"/></svg>

<svg xmlns="http://www.w3.org/2000/svg" width="161px" height="33px" viewBox="0 0 161 33" version="1.1"><defs><filter x="-50%" y="-50%" width="200%" height="200%" filterUnits="objectBoundingBox" id="filter-1"><feOffset dx="0" dy="-1" in="SourceAlpha" result="shadowOffsetOuter1"/><feGaussianBlur stdDeviation="0" in="shadowOffsetOuter1" result="shadowBlurOuter1"/><feColorMatrix values="0 0 0 0 0   0 0 0 0 0   0 0 0 0 0  0 0 0 0.174623528 0" in="shadowBlurOuter1" type="matrix" result="shadowMatrixOuter1"/><feMerge><feMergeNode in="shadowMatrixOuter1"/><feMergeNode in="SourceGraphic"/></feMerge></filter></defs><g id="Page-1" stroke="none" stroke-width="1" fill="none" fill-rule="evenodd"><path d="M24.344 32.204C23.48 32.888 22.724 32.78 22.076 31.952L19.556 28.712C17.936 29.324 16.244 29.648 14.444 29.648 10.556 29.648 7.1 28.064 4.544 25.544 1.988 23.024 0.44 19.532 0.44 15.68 0.44 11.792 1.988 8.336 4.544 5.78 7.1 3.224 10.556 1.676 14.444 1.676 18.296 1.676 21.788 3.224 24.344 5.78 26.9 8.336 28.448 11.792 28.448 15.68 28.448 19.136 27.224 22.304 25.1 24.752L27.44 27.74C28.088 28.604 27.98 29.36 27.152 30.044L24.344 32.204ZM13.436 20.864C12.752 19.964 12.86 19.208 13.688 18.56L16.496 16.364C17.396 15.752 18.152 15.824 18.8 16.652L20.708 19.136C21.32 18.092 21.608 16.94 21.608 15.68 21.608 13.7 20.816 11.9 19.52 10.604 18.224 9.308 16.424 8.48 14.444 8.48 12.464 8.48 10.664 9.308 9.368 10.604 8.072 11.9 7.244 13.7 7.244 15.68 7.244 17.66 8.072 19.46 9.368 20.756 10.664 22.052 12.464 22.844 14.444 22.844 14.66 22.844 14.84 22.844 14.948 22.808L13.436 20.864ZM56.648 16.508C56.612 19.82 55.388 23.132 53.264 25.58 51.104 28.028 48.044 29.648 44.3 29.648 40.7 29.648 37.64 28.172 35.48 25.76 33.32 23.348 32.06 20.072 31.952 16.508L31.952 3.98C31.952 2.9 32.492 2.36 33.572 2.36L37.136 2.36C38.216 2.36 38.756 2.9 38.756 3.98L38.756 16.508C38.756 18.38 39.368 20 40.376 21.152 41.384 22.34 42.752 23.024 44.3 23.024 45.776 23.024 47.18 22.34 48.188 21.152 49.196 20 49.808 18.38 49.808 16.508L49.808 3.98C49.808 2.9 50.348 2.36 51.428 2.36L55.028 2.36C56.108 2.36 56.648 2.9 56.648 3.98L56.648 16.508ZM80.312 27.38C80.312 28.46 79.772 29 78.692 29L63.248 29C62.168 29 61.628 28.46 61.628 27.38L61.628 3.98C61.628 2.9 62.168 2.36 63.248 2.36L78.692 2.36C79.772 2.36 80.312 2.9 80.312 3.98L80.312 7.544C80.312 8.624 79.772 9.164 78.692 9.164L68.432 9.164 68.432 12.512 75.992 12.512C77.072 12.512 77.612 13.052 77.612 14.132L77.612 17.192C77.612 18.272 77.072 18.812 75.992 18.812L68.432 18.812 68.432 22.196 78.692 22.196C79.772 22.196 80.312 22.736 80.312 23.816L80.312 27.38ZM86.8759999 29C85.7959999 29 85.2559999 28.46 85.2559999 27.38L85.2559999 3.98C85.2559999 2.9 85.7959999 2.36 86.8759999 2.36L89.9719999 2.36C90.7999999 2.36 91.4839999 2.72 91.9519999 3.404L100.268 15.464 100.268 3.98C100.268 2.9 100.808 2.36 101.888 2.36L105.452 2.36C106.532 2.36 107.072 2.9 107.072 3.98L107.072 27.38C107.072 28.46 106.532 29 105.452 29L102.356 29C101.528 29 100.844 28.64 100.376 27.956L92.0599999 15.788 92.0599999 27.38C92.0599999 28.46 91.5199999 29 90.4399999 29L86.8759999 29ZM124.868 29.684C121.016 29.684 117.524 28.136 114.968 25.58 112.412 23.024 110.864 19.532 110.864 15.68 110.864 11.792 112.412 8.336 114.968 5.78 117.524 3.224 121.016 1.676 124.868 1.676 128.612 1.676 132.104 3.116 134.732 5.708 135.488 6.464 135.38 7.292 134.516 7.976L131.672 10.208C130.844 10.892 130.232 10.784 129.404 10.1 128.108 9.02 126.596 8.48 124.868 8.48 122.888 8.48 121.088 9.308 119.792 10.604 118.496 11.9 117.668 13.7 117.668 15.68 117.668 17.66 118.496 19.46 119.792 20.756 121.088 22.052 122.888 22.844 124.868 22.844 126.524 22.844 128 22.34 129.26 21.332 130.088 20.72 130.736 20.576 131.564 21.26L134.336 23.6C135.164 24.284 135.272 25.148 134.444 25.904 131.852 28.352 128.468 29.684 124.868 29.684L124.868 29.684ZM160.736 27.38C160.736 28.46 160.196 29 159.116 29L155.552 29C154.472 29 153.932 28.46 153.932 27.38L153.932 19.1 146.552 19.1 146.552 27.38C146.552 28.46 146.012 29 144.932 29L141.368 29C140.288 29 139.748 28.46 139.748 27.38L139.748 3.98C139.748 2.9 140.288 2.36 141.368 2.36L144.932 2.36C146.012 2.36 146.552 2.9 146.552 3.98L146.552 12.26 153.932 12.26 153.932 3.98C153.932 2.9 154.472 2.36 155.552 2.36L159.116 2.36C160.196 2.36 160.736 2.9 160.736 3.98L160.736 27.38Z" id="QUENCH" fill="#FFFFFF" filter="url(#filter-1)"/></g></svg>
